X: 1
T: Speed the Plough
C: John Morehead
Z: 2015 John Chambers <jc:trillian.mit.edu>
N: Handwritten version from the Concord Slow Scottish Jam session binder 2.
N: "Paddledoo Music" at lower right.
O: c.1800
N: Skye, p.5
N: Caledonian Companion, p.37
N: Allan's p.3 #6
N: Harp and Claymore, p.96 (with variations by J.S.Skinner)
N: Hardie p.37
N: SFT p.7
N: Litten p.23
N: Skye  p.5
N: Kennedy V.1 p.16
N: Allan's p.3
N: Phillips p.44 from Topic 12T280
N: J.S.Skinner(?)
D: Bill Hardie on "The Fiddler's Companion" tape
M: C|
L: 1/8
K: A
E |\
"A"A2Ac (ef)ec | "A"eaec efe(c |\
"D"d2)f(d "A"c2)a(c | "D"dc)BA "E7"GABc |\
"A"ABcd efec |
"A"eaga fgef |\
"D"decd "Bm"BcAB | "E7"FAGB "A"A2A :: ((3e/f/g/ |\
"A"a2) (3bag aAce | "A"aAgA fAe(c |
"D"d2)f(d "A"c2)a(c | "D"dc)BA "E"GABc |\
"A"ABcd efec | "A"eaga fgef |\
"D"decd "Bm"BcAB | "E7"FAGB "A"A2A :|
